remix/Business/briefcase-line.svg

<svg viewBox="0 0 24 24" fill="currentColor" xmlns="http://www.w3.org/2000/svg"><path d="M7 5V2C7 1.44772 7.44772 1 8 1H16C16.5523 1 17 1.44772 17 2V5H21C21.5523 5 22 5.44772 22 6V20C22 20.5523 21.5523 21 21 21H3C2.44772 21 2 20.5523 2 20V6C2 5.44772 2.44772 5 3 5H7ZM4 16V19H20V16H4ZM4 14H20V7H4V14ZM9 3V5H15V3H9ZM11 11H13V13H11V11Z"/></svg>

<svg viewBox="0 0 24 24" xmlns="http://www.w3.org/2000/svg"><path fill="none" d="M0 0h24v24H0Z"/><path d="M7 5V2v0c0-.56.44-1 1-1h8v0c.55 0 1 .44 1 1v3h4v0c.55 0 1 .44 1 1v14 0c0 .55-.45 1-1 1H3v0c-.56 0-1-.45-1-1V6v0c0-.56.44-1 1-1h4ZM4 16v3h16v-3H4Zm0-2h16V7H4v7ZM9 3v2h6V3H9Zm2 8h2v2h-2v-2Z"/></svg>
